!!!ONB: MCCC : IJH0445_04 : Extracted Monophonic Melody
!!!COM: Haydn, Joseph
!!!OPR: String Quartet in E-flat major
!!!OMV: 4
!!!SCT: Hob.III:31 ; Op.20 No.1
!!!ODT: 1772///
**kern
*thru
*k[b-e-a-]
*E-:
*clefG
*M2/4
8b-
=1
8cc
8b-
8a-
8g
=2
4.f
8a-
=3
8g
8ee-
8b-
8b-
=4
8cc
8b-
8a-
8g
=5
4.f
16a-
16f
=6
4e-
4r
=7
2r
=8
8r
8bb-
8b-
8a-
=9
8g
8ee-
8b-
8r
=10
2r
=11
8r
8bb-
[4b-
=12
8b-]
8ee-
4a-[
=13
8a-]
8gg
4g[
=14
8g]
8cc
4f[
=15
8f]
8ee-
4e-
=16
8d
4a-
8g
=17
8cc
4f
8e-
=18
8d
4ff
[8b-
=19
8b-]
4a
8ee-[
=20
8ee-]
4dd
8bb-[
=21
8bb-]
4ee
8bb-[
=22
8bb-]
4dd-
8bb-[
=23
8bb-]
4ee
8bb-[
=24
8bb-]
4dd-
8bb-[
=25
8bb-]
4cc
8ddd[
=26
8ddd]
4ccc
8bb-
=27
8aa
4ccc
8aa[
=28
8aa]
4bb-
8ff[
=29
8ff]
4ee-
8dd[
=30
8dd]
4cc
[8b-
=31
8b-]
4g
8e
=32
8e
8f
4r
=33
4.r
8f
=34
8g
8a
8b-
8cc
=35
8dd
8ee-
8ff
8dd
=36
8ee-
8ff
8gg
8aa
=37
8bb-
8ccc
8ddd
8ddd
=38
8ccc
4ccc
8ccc[
=39
8ccc]
4ccc
8ccc[
=40
8ccc]
4ccc
8ccc[
=41
8ccc]
4ccc
8ccc
=42
4..bb-
16aa
=43
4..bb-
16aa
=44
8bb-
8aa
8gg
8ff
=45
8ee
8ee-
8dd
8cc
=46
[2b-
=47
4b-]
8.cc
16b-
=48
4.b-
8dd
=49
8ee-
8cc
8b-
8a
=50
4.b-
8ff
=51
8gg
8ee-
8dd
8cc
=52
4.dd
8ff
=53
8ee-
8cc
8b-
8a
=54
[2b-
=55
4b-]
4b
=56
8cc
8b-
8a-
8g
=57
4.f
8a-
=58
8g
8ee-
8b-
8b-
=59
8dd-
8cc
8b-
8a-
=60
4.g
8b-
=61
4.a-
8ff
=62
4.ee
8gg
=63
4.ff
8aa-
=64
4.b
8dd
=65
4cc
8r
8c
=66
8cc
8b-
8a-
8g
=67
8f
8f
8ff
8ee-
=68
8dd-
8cc
8b-
8b-
=69
8bb-
8aa-
8gg
8ff
=70
8ee-
8e-
8ee-
8dd-
=71
8cc
8b-
8a-
8g
=72
8f
8e-
8d
8c
=73
8B
4g
8dd[
=74
8dd]
4ee-
8cc[
=75
8cc]
4b
8gg[
=76
8gg]
4ff
8ee-[
=77
8ee-]
4dd
8ee-[
=78
8ee-]
4dd
8cc[
=79
8cc]
4b
8aa-[
=80
8aa-]
4b
8gg[
=81
8gg]
4cc
8ccc[
=82
8ccc]
4dd-
8bb-[
=83
8bb-]
4ee
8ccc[
=84
8ccc]
4ff
8eee-[
=85
8eee-]
4ff#
8ddd[
=86
8ddd]
4gg
8ccc[
=87
8ccc]
4ee-
8ccc[
=88
8ccc]
4dd
8bb-[
=89
8bb-]
4dd
8bb-[
=90
8bb-]
4cc#
8bb-[
=91
8bb-]
4cc#
8bb-[
=92
8bb-]
4dd-
8bb-[
=93
8bb-]
4dd-
8aa-[
=94
8aa-]
4cc
8aa-[
=95
8aa-]
4b-
8gg[
=96
8gg]
4b-
8gg-[
=97
8gg-]
4a
8ee-[
=98
8ee-]
4a
8gg-[
=99
8gg-]
4a
8ee-[
=100
8ee-]
4a
8a
=101
4.b-
8dd
=102
8ee-
8cc
8b-
8a
=103
4.b-
8dd
=104
8ee-
8cc
8b-
8a
=105
[2b-
=106
4b-]
4b
=107
8cc
8b-
8a-
8g
=108
4.f
8a-
=109
8g
8ee-
8b-
8b-
=110
8cc
8b-
8a-
8g
=111
4.f
16a-
16f
=112
4e-
4r
=113
2r
=114
8r
8bb-
8b-
8a-
=115
8g
8ee-
8b-
8r
=116
2r
=117
8r
8bb-
[4b-
=118
8b-]
8ee-
4a-[
=119
8a-]
8gg
4g[
=120
8g]
8cc
4f[
=121
8f]
8ee-
4e-
=122
8d
4a-
8g
=123
8cc
4f
8e-[
=124
8e-]
4d
8a-[
=125
8a-]
4g
8ee-[
=126
8ee-]
4a
8ee-[
=127
8ee-]
4g-
8ee-[
=128
8ee-]
4a
8ee-[
=129
8ee-]
4g-
8ee-[
=130
8ee-]
4f
8gg[
=131
8gg]
4ff
8ee-
=132
8dd
4ff
8dd[
=133
8dd]
4ee-
[8b-
=134
8b-]
4a-
8g[
=135
8g]
4f
8e-[
=136
8e-]
4c
8A
=137
8A
8B-
4r
=138
4.r
8B-
=139
8c
8d
8e-
8f
=140
8g
8a-
8b-
8g
=141
8a-
8b-
8cc
8dd
=142
8ee-
8ff
8gg
8gg
=143
8ff
4ff
8ff[
=144
8ff]
4ff
8ff[
=145
8ff]
4ff
8ff[
=146
8ff]
4ff
8ff
=147
4..ee-
16dd
=148
4..ee-
16dd
=149
8ee-
8dd
8cc
8b-
=150
8a
8a-
8g
8f
=151
2e-[
=152
4e-]
8.f
16e-
=153
4.e-
8g
=154
8a-
8f
8e-
8d
=155
4.e-
8b-
=156
8cc
8a-
8g
8f
=157
4.g
8b-
=158
8a-
8f
8e-
8d
=159
2d
=160
4e-
8r
8b-
==
*-
